assets/micropython/mono.svg

<svg viewBox="0 0 24 24" xmlns="http://www.w3.org/2000/svg"><path d="m0 0h11.509v18.737h.982v-18.737h11.509v24h-5.263v-18.737h-.983v18.737h-11.508v-18.737l-.983.035v18.702h-5.263zm22.246 19.509h-1.404v2.386h1.404z"/></svg>

<svg xmlns="http://www.w3.org/2000/svg" viewBox="0 0 24 24"><path d="M0 0h11.509v18.737h.982V0H24v24h-5.263V5.263h-.983V24H6.246V5.263l-.983.035V24H0zm22.246 19.509h-1.404v2.386h1.404z"/></svg>
